X: 18935
T: Indian Summer
R: reel
M: 4/4
K: Dminor
DEFG ADDA|BAGB ADDC|DEFG AD~D2|EDCD EGGA|
DEFG AD~D2|BAGB ADED|C3D CEGA|GECE D4:|
|:d3e dA~A2|BAGB AD~D2|d3e dA~A2|BAGB A4|
d3e f3e|dcAG ADED|C3D CEGA|GECE D4:|
DEFG AD~D2|BAGB AGFE|DEFG ADFD|GECE GCEG|
DEFG AD~D2|BAGB AGED|C2~C2 EC~C2|GECG DEFE:|
|:DdD dcDc|BAGB AD~D2|d3D dcDc|BAGB A3A|
dAde fAfA|cAGc ADDG|C2~C2 EC~C2|GECG DEFE:|

